X:18
T: Két fekete göndör szőrű lovam vagyon
M:4/4
L:1/4
K:D
A/A/d/d/ d/=c/B/A/ | B>A G<F |
A/A/d/d/ d/=c/B/A/ | B>A G<F |
A>G F<E | GBAD |
B/B/B/B/ D<E | D2 D z |

